X:1
T:Title
%%score { ( 1 3 ) | 2 }
L:1/8
M:4/4
K:Bb
V:1 treble nm="Grand Piano"
V:3 treble 
V:2 bass 
V:1
 z4 z2[Q:1/4=100] [Bd]2 | [Bd] [Bd]3 [ce]2 [Ac]2 | z4 z2 [Bf]2 | [Be]3 [Be] B2 [Bc]2 | %4
[M:3/4] [Bd]6 |[M:1/4] [Bd]2 |[M:4/4] [Bd] [Bd]3 [Ac]2 [ce]2 | z4 z2 [Bf]2 | %8
 [df]3 [ef] [df]2 [ce]2 |[M:3/4] [Bd]6 |[M:1/4] f2 |[M:4/4] f2 e4 [ce]2 | %12
 [ce]2[K:bass][K:treble] z2 z4 | [Ac][Bd] [ce]2 [FA][GB] [Ac]2 |[M:3/4] [Bd]6 |[M:1/4] f2 | %16
[M:4/4] f2 e4 [ce]2 | [ce]2[K:bass][K:treble] z2 z2 [Bf]2 | [Be]4 e4 |[M:3/4] [Bd]6 |] %20
V:2
 z4 z2 [B,,F,]2 | [B,,F,] [B,,F,]3 [F,,F,]2 [F,,F,]2 | [B,,F,] [B,,F,]3- [B,,F,]2 .[D,F,]2 | %3
 [E,G,]3 [E,G,] [E,^F,]2 [E,F,]2 |[M:3/4] [B,,F,]6 |[M:1/4] [B,,F,]2 | %6
[M:4/4] [G,,G,] [G,,G,]3 [C,F,]2 [F,,F,]2 | [B,,F,] [B,,F,]3- [B,,F,]2 .[D,F,]2 | %8
 [F,B,]3 [F,C] [F,B,]2 [F,,F,]2 |[M:3/4] [B,,F,]6 |[M:1/4][K:treble] d2 | %11
[M:4/4] d2 c4[K:bass] [F,,F,]2 | .[G,,F,]2 [B,,F,]4 [B,,D,]2 | %13
 [F,,F,]2 [F,,F,]2 [F,,F,]2 [F,,F,]2 |[M:3/4] [B,,F,]6 |[M:1/4][K:treble] d2 | %16
[M:4/4] d2 c4[K:bass] [F,,F,]2 | .[G,,F,]2 [B,,F,]4 .[D,F,]2 | [E,G,]2 C,2 F,2 [F,,F,]2 | %19
[M:3/4] [B,,F,]6 |] %20
V:3
 x8 | x8 | [Bd] [Bd]3- [Bd]2 z _A, | x8 |[M:3/4] x6 |[M:1/4] x2 |[M:4/4] x8 | %7
 [Bd] [Bd]3- [Bd]2 z B, | x8 |[M:3/4] x6 |[M:1/4] x2 |[M:4/4] x8 | %12
 z[K:bass] A,,[K:treble] [Bd]4 B2 | x8 |[M:3/4] x6 |[M:1/4] x2 |[M:4/4] x8 | %17
 z[K:bass] A,,[K:treble] [Bd]4 z _A, | z2 G,2 AB c2 |[M:3/4] x6 |] %20

